X: 24
T:King's Reel
R:Reel
M:4/4
L:1/8
Q:1/4=200
K:G
B,|A,<A,EA, FA,EA,|A,<A,ED CA,A,B,|A,<A,EA, FA,EF|G2EC B,G,G,B,:|
e|c/2B/2AeA aAeA|c/2B/2AeA cAAe|c/2B/2AeA aAef|g2dc BGGe|
c/2B/2AeA aAeA|c/2B/2Aed cAAB|c2ec B2dB|Bgdg BGG2|]
